X:1
T:Title
%%score { ( 1 3 ) | 2 }
L:1/8
M:4/4
K:Bb
V:1 treble nm="Grand Piano"
V:3 treble 
V:2 bass 
V:1
 z4 z2[Q:1/4=100] [DF]2 | [DB]3 [DB] [DB]2 [DF]2 | [B,D]2 [CE]2 [DF]2 [FB]2 | c3 c A2 F2 | %4
[M:3/4] [DB]6 |[M:1/4] [FB]2 |[M:4/4] A3 B c2 [FA]2 | [FB]3 [Fc] [Fd]2 [DFB]2 | %8
 [CFA]2 [Fc]2 [=EG]3 [Ec] |[M:3/4] [Fc]6 |[M:1/4] [EF]2 |[M:4/4] [DB]3 [EB] [FB]2 [GB]2 | %12
 B2- [EB-]2 [DB]2 F2 | c3 c c2 c2 |[M:3/4] c6 |[M:1/4] F2 |[M:4/4] [Fd]2 [Fd]>[Fd] [Fd]2 c2 | %17
 B4 c2 d2 | [Ge]2 [Ge]4 [Gc]2 | [FB]4 [EA]4 |[M:3/4] [DB]6 |] %21
V:2
 z4 z2 [B,,F,]2 | [B,,F,]3 [B,,F,] [B,,F,]2 [B,,B,]2 | [B,,F,]2 [B,,B,]2 [B,,B,]2 [D,B,]2 | %3
 [F,A,E]3 [F,A,E] [F,CE]2 [F,A,E]2 |[M:3/4] [B,,B,]6 |[M:1/4] [D,B,]2 | %6
[M:4/4] [F,CF]3 [F,DF] [F,EF]2 [E,C]2 | [D,B,]3 [C,A,] [B,,B,]2 B,,2 | C,2 [C,A,]2 [C,B,]3 [C,G,] | %9
[M:3/4] [F,A,]6 |[M:1/4] [F,A,]2 |[M:4/4] [B,,B,]3 [C,B,] [D,B,]2 [E,B,]2 | %12
 [D,B,]2 [C,F,]2 [B,,F,]2[K:treble] [B,D]2 | [F,A,F]3 [G,B,F] [A,CF]2 [G,B,=E]2 | %14
[M:3/4][K:bass] [F,A,F]2 [F,B,]2 [F,A,]2 |[M:1/4] [F,A,]2 | %16
[M:4/4] [B,,B,]2 [B,,B,]>[B,,B,] [B,,B,]2 [F,A,E]2 | [G,B,D]4 [F,A,F]2 [B,F]2 | %18
 [E,B,]2 [E,B,]4 [E,E]2 | [F,D]4 [F,C]4 |[M:3/4] [B,,B,]6 |] %21
V:3
 x8 | x8 | x8 | x8 |[M:3/4] x6 |[M:1/4] x2 |[M:4/4] x8 | x8 | x8 |[M:3/4] x6 |[M:1/4] x2 | %11
[M:4/4] x8 | F2 z2 z4 | x8 |[M:3/4] z2 G2 F2 |[M:1/4] x2 |[M:4/4] x8 | x8 | x8 | x8 |[M:3/4] x6 |] %21

